;Fusion 360 CAM 2.0.10446
;Posts processor: MPCNC_Mill_Laser.cps
;Gcode generated: Wednesday, July 14, 2021 12:37:59 AM GMT
;Document: Untitled
;Setup: Setup1

G90
G21
M84 S0

;2D Contour1 - Milling - Tool: 1 - flat end mill
;X Min: -65.088 - X Max: 65.088
;Y Min: -66.04 - Y Max: 65.088
;Z Min: -51.8 - Z Max: 15
M400
M117 2D Contour1
G1 X0.318 Y-66.04 Z15 F498
G1 Z6
G1 Z-4.683 F333
G1 Y-66.036 Z-4.732 F498
G1 Y-66.024 Z-4.781
G1 Y-66.005 Z-4.827
G1 Y-65.979 Z-4.869
G1 Y-65.947 Z-4.907
G1 Y-65.909 Z-4.939
G1 Y-65.867 Z-4.965
G1 Y-65.821 Z-4.984
G1 Y-65.772 Z-4.996
G1 Y-65.723 Z-5
G1 Y-65.405
G3 X0 Y-65.088 I-0.318
G1 X-30.48
G2 X-65.088 Y-30.48 J34.608
G1 Y30.48
G2 X-30.48 Y65.088 I34.608
G1 X30.48
G2 X65.088 Y30.48 J-34.608
G1 Y-30.48
G2 X30.48 Y-65.088 I-34.608
G1 X0
G3 X-0.317 Y-65.405 J-0.317
G1 Y-65.723
G1 Y-65.772 Z-4.996
G1 Y-65.821 Z-4.984
G1 Y-65.867 Z-4.965
G1 Y-65.909 Z-4.939
G1 Y-65.947 Z-4.907
G1 Y-65.979 Z-4.869
G1 Y-66.005 Z-4.827
G1 Y-66.024 Z-4.781
G1 Y-66.036 Z-4.732
G1 Y-66.04 Z-4.683
G1 Z6
G1 X0.318
G1 Z5
G1 Z1 F333
G1 Z-9.683
G1 Y-66.036 Z-9.732 F498
G1 Y-66.024 Z-9.781
G1 Y-66.005 Z-9.827
G1 Y-65.979 Z-9.869
G1 Y-65.947 Z-9.907
G1 Y-65.909 Z-9.939
G1 Y-65.867 Z-9.965
G1 Y-65.821 Z-9.984
G1 Y-65.772 Z-9.996
G1 Y-65.723 Z-10
G1 Y-65.405
G3 X0 Y-65.088 I-0.318
G1 X-30.48
G2 X-65.088 Y-30.48 J34.608
G1 Y30.48
G2 X-30.48 Y65.088 I34.608
G1 X30.48
G2 X65.088 Y30.48 J-34.608
G1 Y-30.48
G2 X30.48 Y-65.088 I-34.608
G1 X0
G3 X-0.317 Y-65.405 J-0.317
G1 Y-65.723
G1 Y-65.772 Z-9.996
G1 Y-65.821 Z-9.984
G1 Y-65.867 Z-9.965
G1 Y-65.909 Z-9.939
G1 Y-65.947 Z-9.907
G1 Y-65.979 Z-9.869
G1 Y-66.005 Z-9.827
G1 Y-66.024 Z-9.781
G1 Y-66.036 Z-9.732
G1 Y-66.04 Z-9.683
G1 Z6
G1 X0.318
G1 Z5
G1 Z-4 F333
G1 Z-14.683
G1 Y-66.036 Z-14.732 F498
G1 Y-66.024 Z-14.781
G1 Y-66.005 Z-14.827
G1 Y-65.979 Z-14.869
G1 Y-65.947 Z-14.907
G1 Y-65.909 Z-14.939
G1 Y-65.867 Z-14.965
G1 Y-65.821 Z-14.984
G1 Y-65.772 Z-14.996
G1 Y-65.723 Z-15
G1 Y-65.405
G3 X0 Y-65.088 I-0.318
G1 X-30.48
G2 X-65.088 Y-30.48 J34.608
G1 Y30.48
G2 X-30.48 Y65.088 I34.608
G1 X30.48
G2 X65.088 Y30.48 J-34.608
G1 Y-30.48
G2 X30.48 Y-65.088 I-34.608
G1 X0
G3 X-0.317 Y-65.405 J-0.317
G1 Y-65.723
G1 Y-65.772 Z-14.996
G1 Y-65.821 Z-14.984
G1 Y-65.867 Z-14.965
G1 Y-65.909 Z-14.939
G1 Y-65.947 Z-14.907
G1 Y-65.979 Z-14.869
G1 Y-66.005 Z-14.827
G1 Y-66.024 Z-14.781
G1 Y-66.036 Z-14.732
G1 Y-66.04 Z-14.683
G1 Z6
G1 X0.318
G1 Z5
G1 Z-9 F333
G1 Z-19.683
G1 Y-66.036 Z-19.732 F498
G1 Y-66.024 Z-19.781
G1 Y-66.005 Z-19.827
G1 Y-65.979 Z-19.869
G1 Y-65.947 Z-19.907
G1 Y-65.909 Z-19.939
G1 Y-65.867 Z-19.965
G1 Y-65.821 Z-19.984
G1 Y-65.772 Z-19.996
G1 Y-65.723 Z-20
G1 Y-65.405
G3 X0 Y-65.088 I-0.318
G1 X-30.48
G2 X-65.088 Y-30.48 J34.608
G1 Y30.48
G2 X-30.48 Y65.088 I34.608
G1 X30.48
G2 X65.088 Y30.48 J-34.608
G1 Y-30.48
G2 X30.48 Y-65.088 I-34.608
G1 X0
G3 X-0.317 Y-65.405 J-0.317
G1 Y-65.723
G1 Y-65.772 Z-19.996
G1 Y-65.821 Z-19.984
G1 Y-65.867 Z-19.965
G1 Y-65.909 Z-19.939
G1 Y-65.947 Z-19.907
G1 Y-65.979 Z-19.869
G1 Y-66.005 Z-19.827
G1 Y-66.024 Z-19.781
G1 Y-66.036 Z-19.732
G1 Y-66.04 Z-19.683
G1 Z6
G1 X0.318
G1 Z5
G1 Z-14 F333
G1 Z-24.683
G1 Y-66.036 Z-24.732 F498
G1 Y-66.024 Z-24.781
G1 Y-66.005 Z-24.827
G1 Y-65.979 Z-24.869
G1 Y-65.947 Z-24.907
G1 Y-65.909 Z-24.939
G1 Y-65.867 Z-24.965
G1 Y-65.821 Z-24.984
G1 Y-65.772 Z-24.996
G1 Y-65.723 Z-25
G1 Y-65.405
G3 X0 Y-65.088 I-0.318
G1 X-30.48
G2 X-65.088 Y-30.48 J34.608
G1 Y30.48
G2 X-30.48 Y65.088 I34.608
G1 X30.48
G2 X65.088 Y30.48 J-34.608
G1 Y-30.48
G2 X30.48 Y-65.088 I-34.608
G1 X0
G3 X-0.317 Y-65.405 J-0.317
G1 Y-65.723
G1 Y-65.772 Z-24.996
G1 Y-65.821 Z-24.984
G1 Y-65.867 Z-24.965
G1 Y-65.909 Z-24.939
G1 Y-65.947 Z-24.907
G1 Y-65.979 Z-24.869
G1 Y-66.005 Z-24.827
G1 Y-66.024 Z-24.781
G1 Y-66.036 Z-24.732
G1 Y-66.04 Z-24.683
G1 Z6
G1 X0.318
G1 Z5
G1 Z-19 F333
G1 Z-29.683
G1 Y-66.036 Z-29.732 F498
G1 Y-66.024 Z-29.781
G1 Y-66.005 Z-29.827
G1 Y-65.979 Z-29.869
G1 Y-65.947 Z-29.907
G1 Y-65.909 Z-29.939
G1 Y-65.867 Z-29.965
G1 Y-65.821 Z-29.984
G1 Y-65.772 Z-29.996
G1 Y-65.723 Z-30
G1 Y-65.405
G3 X0 Y-65.088 I-0.318
G1 X-30.48
G2 X-65.088 Y-30.48 J34.608
G1 Y30.48
G2 X-30.48 Y65.088 I34.608
G1 X30.48
G2 X65.088 Y30.48 J-34.608
G1 Y-30.48
G2 X30.48 Y-65.088 I-34.608
G1 X0
G3 X-0.317 Y-65.405 J-0.317
G1 Y-65.723
G1 Y-65.772 Z-29.996
G1 Y-65.821 Z-29.984
G1 Y-65.867 Z-29.965
G1 Y-65.909 Z-29.939
G1 Y-65.947 Z-29.907
G1 Y-65.979 Z-29.869
G1 Y-66.005 Z-29.827
G1 Y-66.024 Z-29.781
G1 Y-66.036 Z-29.732
G1 Y-66.04 Z-29.683
G1 Z6
G1 X0.318
G1 Z5
G1 Z-24 F333
G1 Z-34.683
G1 Y-66.036 Z-34.732 F498
G1 Y-66.024 Z-34.781
G1 Y-66.005 Z-34.827
G1 Y-65.979 Z-34.869
G1 Y-65.947 Z-34.907
G1 Y-65.909 Z-34.939
G1 Y-65.867 Z-34.965
G1 Y-65.821 Z-34.984
G1 Y-65.772 Z-34.996
G1 Y-65.723 Z-35
G1 Y-65.405
G3 X0 Y-65.088 I-0.318
G1 X-30.48
G2 X-65.088 Y-30.48 J34.608
G1 Y30.48
G2 X-30.48 Y65.088 I34.608
G1 X30.48
G2 X65.088 Y30.48 J-34.608
G1 Y-30.48
G2 X30.48 Y-65.088 I-34.608
G1 X0
G3 X-0.317 Y-65.405 J-0.317
G1 Y-65.723
G1 Y-65.772 Z-34.996
G1 Y-65.821 Z-34.984
G1 Y-65.867 Z-34.965
G1 Y-65.909 Z-34.939
G1 Y-65.947 Z-34.907
G1 Y-65.979 Z-34.869
G1 Y-66.005 Z-34.827
G1 Y-66.024 Z-34.781
G1 Y-66.036 Z-34.732
G1 Y-66.04 Z-34.683
G1 Z6
G1 X0.318
G1 Z5
G1 Z-29 F333
G1 Z-39.683
G1 Y-66.036 Z-39.732 F498
G1 Y-66.024 Z-39.781
G1 Y-66.005 Z-39.827
G1 Y-65.979 Z-39.869
G1 Y-65.947 Z-39.907
G1 Y-65.909 Z-39.939
G1 Y-65.867 Z-39.965
G1 Y-65.821 Z-39.984
G1 Y-65.772 Z-39.996
G1 Y-65.723 Z-40
G1 Y-65.405
G3 X0 Y-65.088 I-0.318
G1 X-30.48
G2 X-65.088 Y-30.48 J34.608
G1 Y30.48
G2 X-30.48 Y65.088 I34.608
G1 X30.48
G2 X65.088 Y30.48 J-34.608
G1 Y-30.48
G2 X30.48 Y-65.088 I-34.608
G1 X0
G3 X-0.317 Y-65.405 J-0.317
G1 Y-65.723
G1 Y-65.772 Z-39.996
G1 Y-65.821 Z-39.984
G1 Y-65.867 Z-39.965
G1 Y-65.909 Z-39.939
G1 Y-65.947 Z-39.907
G1 Y-65.979 Z-39.869
G1 Y-66.005 Z-39.827
G1 Y-66.024 Z-39.781
G1 Y-66.036 Z-39.732
G1 Y-66.04 Z-39.683
G1 Z6
G1 X0.318
G1 Z5
G1 Z-34 F333
G1 Z-44.683
G1 Y-66.036 Z-44.732 F498
G1 Y-66.024 Z-44.781
G1 Y-66.005 Z-44.827
G1 Y-65.979 Z-44.869
G1 Y-65.947 Z-44.907
G1 Y-65.909 Z-44.939
G1 Y-65.867 Z-44.965
G1 Y-65.821 Z-44.984
G1 Y-65.772 Z-44.996
G1 Y-65.723 Z-45
G1 Y-65.405
G3 X0 Y-65.088 I-0.318
G1 X-30.48
G2 X-65.088 Y-30.48 J34.608
G1 Y30.48
G2 X-30.48 Y65.088 I34.608
G1 X30.48
G2 X65.088 Y30.48 J-34.608
G1 Y-30.48
G2 X30.48 Y-65.088 I-34.608
G1 X0
G3 X-0.317 Y-65.405 J-0.317
G1 Y-65.723
G1 Y-65.772 Z-44.996
G1 Y-65.821 Z-44.984
G1 Y-65.867 Z-44.965
G1 Y-65.909 Z-44.939
G1 Y-65.947 Z-44.907
G1 Y-65.979 Z-44.869
G1 Y-66.005 Z-44.827
G1 Y-66.024 Z-44.781
G1 Y-66.036 Z-44.732
G1 Y-66.04 Z-44.683
G1 Z6
G1 X0.318
G1 Z5
G1 Z-39 F333
G1 Z-49.683
G1 Y-66.036 Z-49.732 F498
G1 Y-66.024 Z-49.781
G1 Y-66.005 Z-49.827
G1 Y-65.979 Z-49.869
G1 Y-65.947 Z-49.907
G1 Y-65.909 Z-49.939
G1 Y-65.867 Z-49.965
G1 Y-65.821 Z-49.984
G1 Y-65.772 Z-49.996
G1 Y-65.723 Z-50
G1 Y-65.405
G3 X0 Y-65.088 I-0.318
G1 X-30.48
G2 X-65.088 Y-30.48 J34.608
G1 Y30.48
G2 X-30.48 Y65.088 I34.608
G1 X30.48
G2 X65.088 Y30.48 J-34.608
G1 Y-30.48
G2 X30.48 Y-65.088 I-34.608
G1 X0
G3 X-0.317 Y-65.405 J-0.317
G1 Y-65.723
G1 Y-65.772 Z-49.996
G1 Y-65.821 Z-49.984
G1 Y-65.867 Z-49.965
G1 Y-65.909 Z-49.939
G1 Y-65.947 Z-49.907
G1 Y-65.979 Z-49.869
G1 Y-66.005 Z-49.827
G1 Y-66.024 Z-49.781
G1 Y-66.036 Z-49.732
G1 Y-66.04 Z-49.683
G1 Z6
G1 X0.318
G1 Z5
G1 Z-44 F333
G1 Z-51.483
G1 Y-66.036 Z-51.532 F498
G1 Y-66.024 Z-51.581
G1 Y-66.005 Z-51.627
G1 Y-65.979 Z-51.669
G1 Y-65.947 Z-51.707
G1 Y-65.909 Z-51.739
G1 Y-65.867 Z-51.765
G1 Y-65.821 Z-51.784
G1 Y-65.772 Z-51.796
G1 Y-65.723 Z-51.8
G1 Y-65.405
G3 X0 Y-65.088 I-0.318
G1 X-30.48
G2 X-65.088 Y-30.48 J34.608
G1 Y30.48
G2 X-30.48 Y65.088 I34.608
G1 X30.48
G2 X65.088 Y30.48 J-34.608
G1 Y-30.48
G2 X30.48 Y-65.088 I-34.608
G1 X0
G3 X-0.317 Y-65.405 J-0.317
G1 Y-65.723
G1 Y-65.772 Z-51.796
G1 Y-65.821 Z-51.784
G1 Y-65.867 Z-51.765
G1 Y-65.909 Z-51.739
G1 Y-65.947 Z-51.707
G1 Y-65.979 Z-51.669
G1 Y-66.005 Z-51.627
G1 Y-66.024 Z-51.581
G1 Y-66.036 Z-51.532
G1 Y-66.04 Z-51.483
G1 Z15

M400
M117 Job end
